X: 11393
Q: "Moderate."
M: C
L: 1/8
K: Eb
(cd)(ec) d2(ef) | g4 f2zB |\
(cd)(ec) d2(ef) | {g2}f4 e2z |]
e |\
(gb)(ag) f2(ed) | e3f (ed)(cB) |\
(cd)(ec) d2(ef) | g4 f2zB |\
(Bc)(BA) {A}G2(AB) | (cd)(ec) B2zB |\
(cd)(ec) d2(ef) | f4 e2z |]


